X:1
T:Title
%%score { 1 | ( 2 3 ) }
L:1/8
M:6/8
K:D
V:1 treble nm="Grand Piano"
V:2 bass 
V:3 bass 
V:1
 z3 z2[Q:1/4=100] F | F2 F F2 A | A2 G G2 [EG] | [EG]2 [DF] [CE]2 [CGB] | [GB]2 [FA] [FA]2 [FA] | %5
 [Fd]2 [Fd] c2 c | B2 [DB] [DA]2 [^G,D] | [A,DF]3 [CG]2[K:bass] [G,CE] | [F,D]3- [F,D]2 [F,D] | %9
 [CE]2[K:treble] [CE] [CE]2 [EG] | [EG]2 F F2 A | [CA]2 [CE] [DF]2 [CG] | B2 A A2 [FA] | %13
 [Fd]2 [Fd] c2 c |[M:7/8] B2 [DB] [DA]3 [=CF] |[M:3/4] [B,A]2 [B,DG] [A,DF]2[K:bass] [G,CE] | %16
[M:5/8] [F,D]-[F,D]- [F,D]3 |] %17
V:2
 z3 z2 [D,A,D] | [D,A,D]2 [D,A,D] [D,A,D]2 [F,A,D] | [E,A,C]2 [E,A,C] [E,A,C]2 [A,,A,] | %3
 [A,,A,]2 [A,,A,] [A,,A,]2 A,, | [D,D]2 [D,D] [D,D]2 [D,A,] | [B,,B,]2 [B,,B,] [F,^A,F]2 [F,A,E] | %6
 [G,B,D]2 [G,,G,] [D,F,]2 B,, | z3 E,2 A,, | D,3- D,2 D, | [A,,A,]2 [A,,A,] [A,,A,]2 [A,,A,] | %10
 [D,A,]2 [D,A,D] [D,A,D]2 [D,F,D] | [A,,A,]2 [A,,A,] [A,,A,]2 [A,,A,] | %12
 [D,G,D]2 [D,F,D] [D,F,D]2 [D,A,] | [B,,B,]2 [B,,B,] [F,^A,F]2 [F,A,E] | %14
[M:7/8] [G,B,D]2 [G,,G,] [D,F,]3 [D,A,] |[M:3/4] [G,,G,]2 G,, A,,2 A,, |[M:5/8] D,-D,- D,3 |] %17
V:3
 x6 | x6 | x6 | x6 | x6 | x6 | x6 | A,,6 | x6 | x6 | x6 | x6 | x6 | x6 |[M:7/8] x7 |[M:3/4] x6 | %16
[M:5/8] x5 |] %17

